X:32
T:Lochaber No More
Z:Jack Campin, http://www.campin.me.uk/
F:Jack Campin's Nine-Note Tunebook
% last edit 03-02-2013
B:Kerr's Merry Melodies Bk.3, p47
Z:Nigel Gatherer
M:3/4
L:1/8
Q:1/4=66
K:CMix
CD|E2 E2 EF|E2 D2 EG|A2 D2   DE |E2 D2 
CD|EG FE DC|D4    CD|E2 C2   CD |C4  :|
CD|E2 E2 EF|G2 FE DE|C2 c2   cd |d2 c2 
CD|E2 E2 EF|G2 FE DE|C2 c2   cd |c4 
GA|B2 B2 AG|A4    C2|D2 D2 (3CDE|E2 D2 
CD|EG FE DC|D4    CD|E2 C2   CD |C4  :|

